packages/kaspersky-hexa-ui-icons/src/iconsSVGs/48/WebProtection.svg

<svg width="48" height="48" viewBox="0 0 48 48" fill="none" xmlns="http://www.w3.org/2000/svg">
<path fill-rule="evenodd" clip-rule="evenodd" d="M25 46.0105V32.0105H27V30.0105H25V18.0105H34.08C34.2887 19.4959 34.4189 20.9913 34.47 22.4905L36.47 22.4305C36.47 20.9005 36.29 19.4305 36.11 18.0105H45.11C45.6823 19.9598 45.9818 21.979 46 24.0105C46 24.3605 46 24.7205 46 25.0605L48 25.1605C48 24.7805 48 24.4005 48 24.0105C48.0039 13.6889 41.408 4.52082 31.6205 1.2435C21.8331 -2.03381 11.0463 1.31371 4.83398 9.55636C-1.37839 17.799 -1.62491 29.0905 4.2218 37.5965C10.0685 46.1024 20.6989 49.9175 30.62 47.0705L30.07 45.1505C28.4208 45.6401 26.7185 45.9288 25 46.0105ZM23 45.9405C19.07 45.1205 15.69 39.5305 14.25 32.0505H23V45.9405ZM23 30.0105H13.92C13.36 26.0301 13.36 21.9909 13.92 18.0105H23V30.0105ZM23 2.12046V16.0105H14.25C15.69 8.53047 19.07 2.94046 23 2.12046ZM25 16.0105V2.12046C28.9 2.94046 32.29 8.52046 33.74 16.0105H25ZM44.49 16.0105H35.8C34.8 10.2705 32.67 5.61046 29.95 2.83046C36.5869 4.71576 41.9641 9.58995 44.49 16.0105ZM18 2.84046C15.29 5.63046 13.21 10.3005 12.19 16.0105H3.51001C6.02946 9.60622 11.385 4.7386 18 2.84046ZM2.84001 18.0105H11.84C11.3334 21.9944 11.3334 26.0265 11.84 30.0105H2.84001C1.72009 26.0889 1.72009 21.9321 2.84001 18.0105ZM3.51001 32.0105H12.19C13.19 37.7205 15.29 42.3905 18.02 45.1805C11.3974 43.2877 6.03359 38.4193 3.51001 32.0105ZM30 29.2205V38.3205C30 44.7705 38.31 47.8205 38.66 47.9505L39 48.0705L39.33 47.9505C39.68 47.8305 48 44.8405 48 38.3205V29.2205L39 23.8405L30 29.2205ZM46 38.3205C46 42.7905 40.43 45.3205 39 45.9405C37.54 45.3505 32 42.8105 32 38.3205V30.3205L39 26.1405L46 30.3205V38.3205ZM38 37.1005L43.29 31.8005L44.71 33.2205L38 39.9205L34.29 36.2205L35.71 34.8005L38 37.1005Z"  fill="currentColor"/>
</svg>

<svg xmlns="http://www.w3.org/2000/svg" width="48" height="48" fill="none" viewBox="0 0 48 48"><path fill="currentColor" fill-rule="evenodd" d="M25 46.0105v-14h2v-2h-2v-12h9.08a42.6 42.6 0 0 1 .39 4.48l2-.06c0-1.53-.18-3-.36-4.42h9a22 22 0 0 1 .89 6v1.05l2 .1v-1.15c.0039-10.3216-6.592-19.4897-16.3795-22.767-9.7874-3.2773-20.5742.0702-26.7865 8.3129-6.2124 8.2426-6.459 19.5341-.6122 28.0401s16.4771 12.321 26.3982 9.474l-.55-1.92a21.38 21.38 0 0 1-5.07.86m-2-.07c-3.93-.82-7.31-6.41-8.75-13.89H23zm0-15.93h-9.08a43.07 43.07 0 0 1 0-12H23zm0-27.89v13.89h-8.75c1.44-7.48 4.82-13.07 8.75-13.89m2 13.89v-13.89c3.9.82 7.29 6.4 8.74 13.89zm19.49 0H35.8c-1-5.74-3.13-10.4-5.85-13.18a22.12 22.12 0 0 1 14.54 13.18M18 2.8405c-2.71 2.79-4.79 7.46-5.81 13.17H3.51A22.13 22.13 0 0 1 18 2.8405m-15.16 15.17h9a47.57 47.57 0 0 0 0 12h-9a21.85 21.85 0 0 1 0-12m.67 14h8.68c1 5.71 3.1 10.38 5.83 13.17a22.13 22.13 0 0 1-14.51-13.17m26.49-2.79v9.1c0 6.45 8.31 9.5 8.66 9.63l.34.12.33-.12c.35-.12 8.67-3.11 8.67-9.63v-9.1l-9-5.38zm16 9.1c0 4.47-5.57 7-7 7.62-1.46-.59-7-3.13-7-7.62v-8l7-4.18 7 4.18zm-8-1.22 5.29-5.3 1.42 1.42-6.71 6.7-3.71-3.7 1.42-1.42z" clip-rule="evenodd"/></svg>
